X: 1
T: O'Kane's March
M: 4/4
L: 1/8
R: barndance
K: Gmaj
|: dc | B2 BG cAFe | dgBe d^c=cA | BDGB d^c=cB | AEA>G FDGA |
B2 B>c dgfg | eGce d2 B>c | dged cEBA | G2 G>A G2 :|
K:D
|: FG | A2 FA f2 gf | ecA>B A2 fg | a>bag fAde | fagf e2 fg |
a>fdA G2 FG | AB=c>B A2 FG | A>dfd eAce | d2 d>e d2 :|
K:A
|: cB | A2 EA F2 DF | E2 CE e2 fg | a>fed ceAc | BFB>A GEFG |
 A2 EA F2 DF | E>CEA c2 e>e | f>gaf ecBc | A2 A>B A2 :|
